src/assets/icons/svg/adultFaceHappy.svg

<?xml version="1.0" encoding="UTF-8"?>
<svg width="65px" height="65px" viewBox="0 0 65 65" version="1.1" xmlns="http://www.w3.org/2000/svg" xmlns:xlink="http://www.w3.org/1999/xlink">
    <!-- Generator: Sketch 60.1 (88133) - https://sketch.com -->
    <title>Aikuinen</title>
    <desc>Created with Sketch.</desc>
    <defs>
        <circle id="path-1" cx="32.5" cy="32.5" r="32.5"></circle>
    </defs>
    <g id="MVP" stroke="none" stroke-width="1" fill="none" fill-rule="evenodd">
        <g id="Rekisteröidy-palvelun-käyttäjäksi-hki-profiili" transform="translate(-463.000000, -822.000000)">
            <g id="Aikuinen" transform="translate(463.000000, 822.000000)">
                <mask id="mask-2" fill="white">
                    <use xlink:href="#path-1"></use>
                </mask>
                <use id="Mask" fill="#FFC61E" xlink:href="#path-1"></use>
                <path d="M33.092397,13 C34.8740178,13 38.9078783,13.6079558 43.0126869,16.3950427 C47.1174954,19.1821296 50.0281779,23.4380865 51.0357218,28.2966568 L51.0357218,28.2966568 L51.2596205,28.2966568 C52.6030123,28.4096468 53.759822,29.3512302 54.431518,30.9330903 C54.8793153,31.9876638 55.1032139,33.2682172 54.9539482,34.5487706 C54.767366,37.8254808 52.9015439,40.2735977 50.6625574,40.2735977 L50.6625574,40.2735977 L50.4759752,40.2735977 C50.2520765,40.2735977 50.0654943,40.2359343 49.8415957,40.1606076 C46.8189639,47.0153348 39.9900551,51.5725984 32.4894503,51.5725984 C24.9888456,51.5725984 18.1599368,47.0529981 15.1746215,40.1606076 C14.9507228,40.198271 14.7641406,40.2735977 14.5402419,40.2735977 L14.5402419,40.2735977 L14.3536597,40.2735977 C12.1146732,40.2735977 10.2488512,37.8254808 10.0249525,34.5487706 C9.80105387,31.5733671 11.1071293,29.0875869 13.0102678,28.4473102 C11.7041924,27.7317068 10.7339649,26.9031134 10.1742183,25.9991933 C9.91300319,25.5848967 10.0249525,24.9822833 10.4727498,24.7186399 C10.8832307,24.4549966 11.4802937,24.5679866 11.7415088,25.0199466 C12.1893061,25.6978867 13.0849007,26.41349 14.2790269,27.0161034 C15.6224188,22.3081864 18.7196834,18.3158728 22.9364413,15.8300927 C27.1531992,13.3443125 31.3107763,13 33.092397,13 Z M40.1766373,21.7055731 C37.4525371,25.2082633 33.4596778,27.9576868 28.9443884,29.3888936 C26.5561361,30.1421603 24.093251,30.5187937 21.7049987,30.5187937 C19.5406451,30.5187937 17.4882408,30.1798236 15.5851023,29.5772103 C15.4358365,30.5187937 15.3612037,31.4603771 15.3612037,32.4019604 C15.3612037,34.5111073 15.7343681,36.6202541 16.4806969,38.5787475 C18.9808985,45.2074947 25.4366429,49.6894316 32.4894503,49.6894316 C39.5422578,49.6894316 45.9980022,45.2074947 48.5355202,38.6164109 C49.281849,36.6202541 49.6550135,34.5487706 49.6550135,32.4396238 C49.6550135,32.0253271 49.6550135,31.6110304 49.617697,31.1967337 C49.3937984,31.121407 49.1698997,31.008417 48.9833175,30.9330903 C46.4457995,29.8031903 44.3933952,28.1836668 42.7887882,26.07452 C41.7066114,24.6433133 40.8110168,23.1744432 40.1766373,21.7055731 Z M28.6831733,39.5203309 C29.0190213,39.1436976 29.6160843,39.1436976 29.9892488,39.5203309 C30.4743625,40.0099543 31.2953242,40.2735977 32.4894503,40.2735977 C33.6835765,40.2735977 34.5045382,40.0099543 34.9896519,39.5203309 C35.3628163,39.1436976 35.922563,39.1436976 36.2957274,39.5203309 C36.6688918,39.859301 36.6688918,40.4619143 36.2957274,40.8385477 C35.4747657,41.7048044 34.1686902,42.1567644 32.4894503,42.1567644 C30.8102105,42.1567644 29.5414515,41.7048044 28.6831733,40.8385477 C28.3100089,40.4995777 28.3100089,39.8969643 28.6831733,39.5203309 Z M13.6073309,30.217487 C12.6371034,30.4811303 11.7041924,32.1759804 11.8534582,34.4357806 C12.0027239,36.8838974 13.2714829,38.5034209 14.3909762,38.4280942 L14.3909762,38.4280942 L14.4656091,38.4280942 C13.8312296,36.4696007 13.4953816,34.4734439 13.4953816,32.4019604 C13.4953816,31.6863571 13.532698,30.9330903 13.6073309,30.217487 Z M51.3715698,30.217487 L51.3715698,30.4058036 C51.4462027,31.0460804 51.4835191,31.7240204 51.4835191,32.3642971 C51.4835191,34.4357806 51.1476711,36.4319374 50.5132916,38.3904309 L50.5132916,38.3904309 L50.5879245,38.3904309 C51.6701013,38.4657575 52.9761768,36.8462341 53.1254425,34.4357806 C53.2000754,33.4565339 53.0508096,32.4772871 52.7149617,31.6486937 C52.3791137,30.895427 51.894,30.3681403 51.3715698,30.217487 L51.3715698,30.217487 Z M41.7066114,32.5902771 C42.63403,32.5902771 43.3858513,33.3490874 43.3858513,34.2851272 C43.3858513,35.2211671 42.63403,35.9799774 41.7066114,35.9799774 C40.7791928,35.9799774 40.0273715,35.2211671 40.0273715,34.2851272 C40.0273715,33.3490874 40.7791928,32.5902771 41.7066114,32.5902771 Z M23.6827701,32.5902771 C24.6101887,32.5902771 25.36201,33.3490874 25.36201,34.2851272 C25.36201,35.2211671 24.6101887,35.9799774 23.6827701,35.9799774 C22.7553516,35.9799774 22.0035303,35.2211671 22.0035303,34.2851272 C22.0035303,33.3490874 22.7553516,32.5902771 23.6827701,32.5902771 Z M42.266358,18.1652195 C42.0051429,18.7301695 41.7439279,19.2574562 41.4080799,19.7847429 C42.0051429,21.4419297 42.9753704,23.1744432 44.2441294,24.8692933 C45.5502049,26.6018067 47.2667612,27.9576868 49.281849,28.9369335 C48.4235709,24.6056499 45.9233693,20.7639897 42.266358,18.1652195 Z M32.4894503,15.1144893 C29.6907172,15.1144893 26.9293005,15.7924293 24.4664154,17.1106461 C20.2869739,19.3327829 17.2643422,23.1744432 15.9955832,27.8070335 C18.1972532,28.5226369 22.6752262,29.4265569 28.3473253,27.6187168 C33.049197,26.1121834 37.1540055,23.0614531 39.6168907,19.2574562 C40.0273715,18.5795162 40.400536,17.9392395 40.6990675,17.2612994 C40.2885866,16.9976561 39.8407893,16.7716761 39.392992,16.5833594 C37.191322,15.6041126 34.8777026,15.1144893 32.4894503,15.1144893 Z" id="adult_face" fill="#1A1A1A" fill-rule="nonzero" mask="url(#mask-2)"></path>
            </g>
        </g>
    </g>
</svg>

<?xml version="1.0" encoding="UTF-8"?><svg version="1.1" viewBox="0 0 65 65" xmlns="http://www.w3.org/2000/svg" xmlns:xlink="http://www.w3.org/1999/xlink"><defs><circle id="a" cx="32.5" cy="32.5" r="32.5"/></defs><g fill="none" fill-rule="evenodd"><g transform="translate(-463 -822)"><g transform="translate(463 822)"><mask id="b" fill="white"><use xlink:href="#a"/></mask><use fill="#FFC61E" xlink:href="#a"/><path d="m33.092 13c1.7816 0 5.8155 0.60796 9.9203 3.395 4.1048 2.7871 7.0155 7.043 8.023 11.902h0.2239c1.3434 0.11299 2.5002 1.0546 3.1719 2.6364 0.4478 1.0546 0.6717 2.3351 0.52243 3.6157-0.18658 3.2767-2.0524 5.7248-4.2914 5.7248h-0.18658c-0.2239 0-0.41048-0.037663-0.63438-0.11299-3.0226 6.8547-9.8515 11.412-17.352 11.412-7.5006 0-14.33-4.5196-17.315-11.412-0.2239 0.037663-0.41048 0.11299-0.63438 0.11299h-0.18658c-2.239 0-4.1048-2.4481-4.3287-5.7248-0.2239-2.9754 1.0822-5.4612 2.9853-6.1015-1.3061-0.7156-2.2763-1.5442-2.836-2.4481-0.26122-0.4143-0.14927-1.0169 0.29853-1.2806 0.41048-0.26364 1.0075-0.15065 1.2688 0.30131 0.4478 0.67794 1.3434 1.3935 2.5375 1.9962 1.3434-4.7079 4.4407-8.7002 8.6574-11.186 4.2168-2.4858 8.3743-2.8301 10.156-2.8301zm7.0842 8.7056c-2.7241 3.5027-6.717 6.2521-11.232 7.6833-2.3883 0.75327-4.8511 1.1299-7.2394 1.1299-2.1644 0-4.2168-0.33897-6.1199-0.94158-0.14927 0.94158-0.2239 1.8832-0.2239 2.8248 0 2.1091 0.37316 4.2183 1.1195 6.1768 2.5002 6.6287 8.9559 11.111 16.009 11.111 7.0528 0 13.509-4.4819 16.046-11.073 0.74633-1.9962 1.1195-4.0676 1.1195-6.1768 0-0.4143 0-0.82859-0.037316-1.2429-0.2239-0.075327-0.4478-0.18832-0.63438-0.26364-2.5375-1.1299-4.5899-2.7494-6.1945-4.8586-1.0822-1.4312-1.9778-2.9001-2.6122-4.3689zm-11.493 17.815c0.33585-0.37663 0.93291-0.37663 1.3061 0 0.48511 0.48962 1.3061 0.75327 2.5002 0.75327 1.1941 0 2.0151-0.26364 2.5002-0.75327 0.37316-0.37663 0.93291-0.37663 1.3061 0 0.37316 0.33897 0.37316 0.94158 0 1.3182-0.82096 0.86626-2.127 1.3182-3.8063 1.3182-1.6792 0-2.948-0.45196-3.8063-1.3182-0.37316-0.33897-0.37316-0.94158 0-1.3182zm-15.076-9.3028c-0.97023 0.26364-1.9031 1.9585-1.7539 4.2183 0.14927 2.4481 1.418 4.0676 2.5375 3.9923h0.074633c-0.63438-1.9585-0.97023-3.9547-0.97023-6.0261 0-0.7156 0.037316-1.4689 0.11195-2.1845zm37.764 0v0.18832c0.074633 0.64028 0.11195 1.3182 0.11195 1.9585 0 2.0715-0.33585 4.0676-0.97023 6.0261h0.074633c1.0822 0.075327 2.3883-1.5442 2.5375-3.9547 0.074633-0.97925-0.074633-1.9585-0.41048-2.7871-0.33585-0.75327-0.82096-1.2806-1.3434-1.4312zm-9.665 2.3728c0.92742 0 1.6792 0.75881 1.6792 1.6949 0 0.93604-0.75182 1.6949-1.6792 1.6949s-1.6792-0.75881-1.6792-1.6949c0-0.93604 0.75182-1.6949 1.6792-1.6949zm-18.024 0c0.92742 0 1.6792 0.75881 1.6792 1.6949 0 0.93604-0.75182 1.6949-1.6792 1.6949-0.92742 0-1.6792-0.75881-1.6792-1.6949 0-0.93604 0.75182-1.6949 1.6792-1.6949zm18.584-14.425c-0.26122 0.56495-0.52243 1.0922-0.85828 1.6195 0.59706 1.6572 1.5673 3.3897 2.836 5.0846 1.3061 1.7325 3.0226 3.0884 5.0377 4.0676-0.85828-4.3313-3.3585-8.1729-7.0155-10.772zm-9.7769-3.0507c-2.7987 0-5.5601 0.67794-8.023 1.9962-4.1794 2.2221-7.2021 6.0638-8.4708 10.696 2.2017 0.7156 6.6796 1.6195 12.352-0.18832 4.7019-1.5065 8.8067-4.5573 11.27-8.3613 0.41048-0.67794 0.78365-1.3182 1.0822-1.9962-0.41048-0.26364-0.85828-0.48962-1.3061-0.67794-2.2017-0.97925-4.5153-1.4689-6.9035-1.4689z" fill="#1A1A1A" fill-rule="nonzero" mask="url(#b)"/></g></g></g></svg>
